X:1
T:Norcross, CM
T:Norcross, CM
T:James Ramsey Murray, 1881
T:Public Domain Courtesy of the Cyber Hymnal™
C:James Ramsey Murray, 1881
Z:Public Domain
Z:Courtesy of the Cyber Hymnal™
%%score ( 1 2 ) ( 3 4 )
L:1/8
Q:1/4=105
M:4/4
K:Bb
V:1 treble 
V:2 treble 
V:3 bass 
V:4 bass 
V:1
 [DB]2 [DF][DB] [EA]2 [EG]2 | [CF]3 [CE] [B,D]2 [CF]2 | [DB]2 [B,D]2 [B,=E]2 [CG]2 | [CF]6 z2 | %4
 [DB]2 [DF][DB] [Fd]2 [FB]2 | [Fe]2 [Fd]2 [Fc]2 F2 | [EG]2 [=EB]2 [FB]2 [_EA]2 | [DB]6 z2 |] %8
V:2
 x8 | x8 | x8 | x8 | x8 | x6 F2 | x8 | x8 |] %8
V:3
 [B,,F,]2 [B,,B,][B,,F,] [C,F,]2 [C,F,]2 | [F,A,]3 [F,A,] [B,,B,]2 [A,,F,]2 | %2
 [G,,G,]2 [G,,G,]2 [C,G,]2 [C,B,]2 | [F,A,]6 z2 | [B,,B,]2 [B,,B,][B,,F,] [B,,B,]2 [D,B,]2 | %5
 [C,A,]2 B,2 [F,A,]2 [D,B,]2 | [E,B,]2 [G,C]2 [F,D]2 [F,C]2 | [B,,B,]6 z2 |] %8
V:4
 x8 | x8 | x8 | x8 | x8 | x2 (D,E,) x4 | x8 | x8 |] %8

